X:1
T: The Fairy Dance
P:Roche version
R:Reel
Q: 232
K:D
M:4/4
L:1/8
A2 FA B2 GB|c2 Ag fd cd|A2 FA B2 GB|ce cA BA FG|A2 FA B2 GB|c2 Ag fd cd|A2 FA B2 GB|ce Ac d3d|
f2 df gf ed|cA Bc de fg|f2 df gf ed|cA Bc d3e|f2 df gf ed|cA Bc de fg|af ge fd ec|df eg fd cd|
A2 FA B2 GB|c2 Ag fd cd|A2 FA B2 GB|ce cA BA FG|A2 FA B2 GB|c2 Ag fd cd|A2 FA B2 GB|ce Ac d2 dB|
AF F2 AF F2|AF F2 GE E2|A2 FA B2 AF|ED EF De dB|AF F2 AF F2|AF F2 GE E2|A2 FA B2 AF|ED EF D2 A2|
de fg af df|ge fd ed BA|de fg af df|ed ef e2 dB|de fg af df|ge fd ed BA|de fg a2 ag|f2 fe df dB|
A2 FA B2 GB|c2 Ag fd cd|A2 FA B2 GB|ce cA BA FG|A2 FA B2 GB|c2 Ag fd cd|A2 FA B2 GB|ce Ac d4||
